X: 6
T:Difyrrwch Corbett o Ynysmaengwyn
T:Corbett of Ynysmaengwyn's Delight
M:6/8
L:1/8
Q:130
N:This is the Welsh version of a well-known
N:Tune in English, Scottish and Irish
N:collections. B.M.
S:Cadw Twmpath Collection
R:Jig
A:Wales
Z:brian_martin12345@yahoo.com
K:D
A|d2d dcd|B2dA3|ABc def|g2ec2A|
d2d dcd|B2dA3|ABc def|gecd2:||
A|d2ef3|fgfe2d|e2de2d|e2f ecA|
d2ef3|fgfe2d|e2de2f|d3-d2:||
